X: 6544
T: Catharsis
R: reel
M: 4/4
K: Eminor
Beed Beed|Bdef gefd|Beed Beed|BAGA GFGF|
Beed Beed|Bdef gefa|baga gfed|1 Beed e2 e2:|2 Beed efga||
BeeA eege|efee efga|BddA ddgd|dfdd efga|
BccA ccGc|cfcc efga|baga gfed|1 Beed efga:|2 BAGA GFGF||

